X:32
T: Ach Gott in deinem hoechsten Thron
N: A0390B
O: Europa, Mitteleuropa, Deutschland
N: Hs. aus dem 16. Jh.
R: Romanze, Ballade, Lied, religioeses Lied
M: 4/2
L: 1/4
K: C
c2 | c2c2B2c2 | d2c2B4z2
B2 | c2d2e2c2 | d6cB | A2G2A4 | G4z2
G2G2A2 | B4c2B2- | B2AGA2G2 | E4z2
A2 | A2A2A2A2 | G2E2C4 | z2
C2G2A2 | B2c2d2d2 | c4z4 |
c4B2A2 | G2G2C3D | EFG4FE | D4C2

@@@ Tune index: 345
